packages/crayons-core/src/components/icon/icon-assets/icons/align-justify.svg

<?xml version="1.0" encoding="UTF-8"?>
<svg width="14px" height="14px" viewBox="0 0 14 14" version="1.1" xmlns="http://www.w3.org/2000/svg" xmlns:xlink="http://www.w3.org/1999/xlink">
    <!-- Generator: Sketch 52.6 (67491) - http://www.bohemiancoding.com/sketch -->
    <title>icon/align-justify</title>
    <desc>Created with Sketch.</desc>
    <g id="Icons-✅" stroke="none" stroke-width="1" fill="none" fill-rule="evenodd">
        <g id="Icons" transform="translate(-737.000000, -2785.000000)" fill="currentColor">
            <g id="icon/align-justify" transform="translate(737.000000, 2785.000000)">
                <g id="align-justify">
                    <path d="M13.3,1.4 L0.7,1.4 C0.313400679,1.39999999 1.04308668e-08,1.08659932 1.04308668e-08,0.7 C1.04308668e-08,0.313400679 0.313400679,5.76077874e-09 0.7,-2.22044605e-16 L13.3,-2.22044605e-16 C13.5500859,-5.27016741e-09 13.7811748,0.13341924 13.9062178,0.349999996 C14.0312608,0.566580752 14.0312608,0.833419248 13.9062178,1.05 C13.7811748,1.26658076 13.5500859,1.40000001 13.3,1.4 Z M13.3,5.6 L10.06,5.6 C9.67340068,5.6 9.36,5.28659932 9.36,4.9 C9.36,4.51340068 9.67340068,4.2 10.06,4.2 L13.3,4.2 C13.6865993,4.2 14,4.51340068 14,4.9 C14,5.28659932 13.6865993,5.6 13.3,5.6 Z M3.94,14 L0.7,14 C0.313400675,14 4.97379915e-14,13.6865993 4.97379915e-14,13.3 C4.97379915e-14,12.9134007 0.313400675,12.6 0.7,12.6 L3.94,12.6 C4.32659932,12.6 4.64,12.9134007 4.64,13.3 C4.64,13.6865993 4.32659932,14 3.94,14 Z M7.34,5.6 L0.7,5.6 C0.313400675,5.6 -1.77635684e-14,5.28659932 -1.77635684e-14,4.9 C-1.77635684e-14,4.51340068 0.313400675,4.2 0.7,4.2 L7.34,4.2 C7.72659932,4.2 8.04,4.51340068 8.04,4.9 C8.04,5.28659932 7.72659932,5.6 7.34,5.6 Z M13.3,14 L6.66,14 C6.27340068,14 5.96,13.6865993 5.96,13.3 C5.96,12.9134007 6.27340068,12.6 6.66,12.6 L13.3,12.6 C13.6865993,12.6 14,12.9134007 14,13.3 C14,13.6865993 13.6865993,14 13.3,14 Z M13.3,9.8 L0.7,9.8 C0.313400675,9.8 0,9.48659932 0,9.1 C0,8.71340068 0.313400675,8.4 0.7,8.4 L13.3,8.4 C13.6865993,8.4 14,8.71340068 14,9.1 C14,9.48659932 13.6865993,9.8 13.3,9.8 Z" id="Combined-Shape"></path>
                </g>
            </g>
        </g>
    </g>
</svg>

<svg viewBox="0 0 14 14"><path d="M13.3 1.4H.7A.7.7 0 0 1 .7 0h12.6a.7.7 0 0 1 0 1.4zm0 4.2h-3.24a.7.7 0 0 1 0-1.4h3.24a.7.7 0 0 1 0 1.4zM3.94 14H.7a.7.7 0 0 1 0-1.4h3.24a.7.7 0 0 1 0 1.4zm3.4-8.4H.7a.7.7 0 0 1 0-1.4h6.64a.7.7 0 0 1 0 1.4zM13.3 14H6.66a.7.7 0 0 1 0-1.4h6.64a.7.7 0 0 1 0 1.4zm0-4.2H.7a.7.7 0 0 1 0-1.4h12.6a.7.7 0 0 1 0 1.4z" fill="currentColor" fill-rule="evenodd"/></svg>
